X:1
T:Noah, 86.86.86.86.86.86
T:Noah, 86.86.86.86.86.86
T:Hubert Platt Main, 1876
T:Public Domain, Courtesy of the Cyber Hymnal™
C:Hubert Platt Main, 1876
Z:Public Domain,
Z:Courtesy of the Cyber Hymnal™
%%score ( 1 2 ) ( 3 4 )
L:1/8
Q:1/4=115
M:4/4
K:F
V:1 treble 
V:2 treble 
V:3 bass 
V:4 bass 
V:1
 C2 | [CA]3 [CF] [B,D]2 [B,E]2 | [B,D]4 [A,C]2 C2 | (DE) [A,F]2 [CF]2 [EG]2 | [FA]6 [FA]2 | %5
 [Fc]3 [F=B] [EA]2 [E^G]2 | [EA]4 [EA]2 [Ec]2 | [Ge]3 [Fd] [FA]2 [D=B]2 | [Ec]6 [Ec]2 | %9
 [Fc]2 [Fc]2 [Af]2 [Fc]2 | (cd) [Ec]4 [Ed]2 | [Fc]2 [CA]2 [DF]2 [DG]2 | [^CA]6 [CA]2 | %13
 [DA]3 [DA] [FA]2 [F=B]2 | [Ec]4 [EG]2 [Gc]2 | [Fc]3 [F=B] [FA]2 [FB]2 | [Ec]6 [Ec]2 | %17
 [Fc]2 [Ec]2 [Fc]2 [Fc]2 | (cd) [Ec]4 [Gc]2 | [Ff]2 [Ac]2 [Cc]2 [CA]2 | [Ec]6 [Fc]2 | %21
 [Fd]2 [Fd]2 [Fc]2 [Ac]2 | [GB]2 [Ec]2 !fermata![FA]3"^rit." F | [CF]2 [CF]2 [EG]3 F | F6 |] %25
V:2
 C2 | x8 | x6 C2 | B,2 x6 | x8 | x8 | x8 | x8 | x8 | x8 | E2 x6 | x8 | x8 | x8 | x8 | x8 | x8 | %17
 x8 | E2 x6 | x8 | x8 | x8 | x7 F | x7 F | F6 |] %25
V:3
 [F,A,]2 | [F,A,]3 [F,A,] F,2 F,2 | F,4 F,2 [A,,F,]2 | [B,,F,]2 [D,F,]2 [C,A,]2 [C,C]2 | %4
 [F,C]6 [F,C]2 | [F,A,]3 [D,=B,] [E,C]2 [E,B,]2 | [A,,C]4 [A,,C]2 [A,C]2 | %7
 [G,=B,]3 [G,B,] [G,,B,]2 [G,,G,]2 | [C,G,]6 [C,B,]2 | [F,A,]2 [F,A,]2 [F,C]2 [A,C]2 | %10
 [G,B,]2 [C,B,]4 [C,B,]2 | [F,,A,]2 [F,,F,]2 [B,,F,]2 [B,,D,]2 | [A,,E,]6 [A,,E,]2 | %13
 [D,F,]3 [D,F,] [D,A,]2 [G,,G,]2 | [C,G,]4 [C,C]2 [E,C]2 | [G,D]3 [G,D] [G,D]2 [G,D]2 | %16
 [C,C]6 [C,G,]2 | [F,A,]2 [C,G,]2 [F,A,]2 [A,C]2 | [G,B,]2 [C,B,]4 [E,B,]2 | %19
 [F,A,]2 [F,C]2 [E,G,]2 F,2 | [C,G,]6 [F,A,]2 | B,2 B,2 [A,C]2 [^F,D]2 | %22
 [G,D]2 [C,C]2 !fermata![F,C]3 [A,,C] | [C,A,]2 [C,A,]2 [C,B,]3 [F,,A,] | [F,,A,]6 |] %25
V:4
 x2 | x4 F,2 F,2 | F,4 F,2 x2 | x8 | x8 | x8 | x8 | x8 | x8 | x8 | x8 | x8 | x8 | x8 | x8 | x8 | %16
 x8 | x8 | x8 | x6 F,2 | x8 | B,2 B,2 x4 | x8 | x8 | x6 |] %25

